X:451
T:Alexander's hornpipe
T:Bryne's favorite hornpipe
R:Hornpipe
O:Ireland
B:Kerr's Second p 41
S:Richard Darsie's web page
Z:Transcription, chords:Mike Long
M:4/4
L:1/8
K:D
fe |\
"D"dAFA DFAd|fdcd A2ef|\
"G"~g3 e "D"fdcd|"A"(3(efe) (3(dcB) A2 fe|\
"D"dAFA DFAd|
fdcd A2ef|"G"~g3 e "D"fdcd|"A"~e2dc "D"d2 :|\
|: AG |\
"D"FAdA FAdA|"G"GBdB GBdB |
"A"Acec Acec|"D"dfaf "A"gecA|\
"D"FAdA FAdA|"G"GBdB GBdB |\
"A"Aceg fdcd|"A"~e2dc "D"d2:|
